X:1
T:[ID 5-15a]
T:[ID 5-15a]
T:Bezeichnung standardisiert: Menuett Menuet
T:Urheber unbekannt Datum in der hier transkribierten schriftlichen Quelle: 1773
C:Urheber unbekannt
C:Datum in der hier transkribierten schriftlichen Quelle: 1773
L:1/8
M:3/4
K:D
V:1 treble 
V:1
 D2 FDGE | A2 A2 A2 | B2 geBc | d2 D2 D2 | f2 af e2 | d2 cB c2 | B2 A2 ^G2 | A6 :: A2 cAdB | %9
 e2 e2 f2 | g2 gefd | c2 ec A2 | B2 dc A2 | G2 FE F2 | EGFEDC | D6 :| %16

